app/style/graphics/spriteSheets/maze/maze_blue.svg

<svg xmlns="http://www.w3.org/2000/svg" viewBox="0 0 224 248"><defs><style>.cls-1{fill:#fff;}.cls-2{fill:#b9ce19;fill-rule:evenodd;}.cls-3{fill:#fcb5ff;}</style></defs><g id="Capa_2" data-name="Capa 2"><g id="Capa_1-2" data-name="Capa 1"><rect class="cls-1" width="224" height="248"/><rect width="224" height="248"/><path class="cls-2" d="M104,100H84v32h56V100H120v4h16v24H88V104h16Zm-1,1H85v30h54V101H121v2h16v26H87V103h16Z"/><path class="cls-3" d="M104,103v-2h16v2Z"/><path class="cls-2" d="M22,52H42v1H22Zm-1,2h1V53H21Zm0,4V54H20v4Zm1,1V58H21v1Zm20,0H22v1H42Zm1-1H42v1h1Zm0-4H42V53h1Zm0,0v4h1V54Z"/><path class="cls-2" d="M182,52h20v1H182Zm-1,2h1V53h-1Zm0,4V54h-1v4Zm1,1V58h-1v1Zm20,0H182v1h20Zm1-1h-1v1h1Zm0-4h-1V53h1Zm0,0v4h1V54Z"/><path class="cls-2" d="M62,124h4v1H62Zm-1,2h1v-1H61Zm0,28V126H60v28Zm1,1v-1H61v1Zm4,0H62v1h4Zm1-1H66v1h1Zm0-28H66v-1h1Zm0,0v28h1V126Z"/><path class="cls-2" d="M158,124h4v1h-4Zm-1,2h1v-1h-1Zm0,28V126h-1v28Zm1,1v-1h-1v1Zm4,0h-4v1h4Zm1-1h-1v1h1Zm0-28h-1v-1h1Zm0,0v28h1V126Z"/><path class="cls-2" d="M164,174v4h-1v-4Zm-2-1v1h1v-1Zm-28,0h28v-1H134Zm-1,1h1v-1h-1Zm0,4v-4h-1v4Zm1,1v-1h-1v1Zm28,0v-1h1v1Zm0,0H134v1h28Z"/><path class="cls-2" d="M92,174v4H91v-4Zm-2-1v1h1v-1Zm-28,0H90v-1H62Zm-1,1h1v-1H61Zm0,4v-4H60v4Zm1,1v-1H61v1Zm28,0v-1h1v1Zm0,0H62v1H90Z"/><path class="cls-2" d="M22,20H42v1H22Zm-1,2h1V21H21Zm0,12V22H20V34Zm1,1V34H21v1Zm20,0H22v1H42Zm1-1H42v1h1Zm0-12H42V21h1Zm0,0V34h1V22Z"/><path class="cls-2" d="M182,20h20v1H182Zm-1,2h1V21h-1Zm0,12V22h-1V34Zm1,1V34h-1v1Zm20,0H182v1h20Zm1-1h-1v1h1Zm0-12h-1V21h1Zm0,0V34h1V22Z"/><path class="cls-2" d="M62,20H90v1H62Zm-1,2h1V21H61Zm0,12V22H60V34Zm1,1V34H61v1Zm28,0H62v1H90Zm1-1H90v1h1Zm0-12H90V21h1Zm0,0V34h1V22Z"/><path class="cls-2" d="M134,20h28v1H134Zm-1,2h1V21h-1Zm0,12V22h-1V34Zm1,1V34h-1v1Zm28,0H134v1h28Zm1-1h-1v1h1Zm0-12h-1V21h1Zm0,0V34h1V22Z"/><path class="cls-2" d="M62,52h4v1H62Zm-1,2h1V53H61Zm0,52V54H60v52Zm1,1v-1H61v1Zm4,0H62v1h4Zm1-1H66v1h1Zm1-21H67v21h1Zm1-1H68v1h1Zm21-1H69v1H90Zm1-1H90v1h1Zm0-4v4h1V78Zm-1-1v1h1V77ZM69,76v1H90V76Zm-1-1v1h1V75ZM67,54H66V53h1Zm0,0V75h1V54Z"/><path class="cls-2" d="M140,54v4h-1V54Zm-2-1v1h1V53ZM86,53h52V52H86Zm-1,1h1V53H85Zm0,4V54H84v4Zm1,1V58H85v1Zm21,1V59H86v1Zm1,1V60h-1v1Zm1,21V61h-1V82Zm1,1V82h-1v1Zm4,0h-4v1h4Zm1-1h-1v1h1Zm1-21h-1V82h1Zm1-1h-1v1h1Zm21-1V58h1v1Zm0,0H117v1h21Z"/><path class="cls-2" d="M162,108h-4v-1h4Zm1-2h-1v1h1Zm0-52v52h1V54Zm-1-1v1h1V53Zm-4,0h4V52h-4Zm-1,1h1V53h-1Zm-1,21h1V54h-1Zm-1,1h1V75h-1Zm-21,1h21V76H134Zm-1,1h1V77h-1Zm0,4V78h-1v4Zm1,1V82h-1v1Zm21,1V83H134v1Zm1,1V84h-1v1Zm1,21h1v1h-1Zm0,0V85h-1v21Z"/><path class="cls-2" d="M140,150v4h-1v-4Zm-2-1v1h1v-1Zm-52,0h52v-1H86Zm-1,1h1v-1H85Zm0,4v-4H84v4Zm1,1v-1H85v1Zm21,1v-1H86v1Zm1,1v-1h-1v1Zm1,21V157h-1v21Zm1,1v-1h-1v1Zm4,0h-4v1h4Zm1-1h-1v1h1Zm1-21h-1v21h1Zm1-1h-1v1h1Zm21-1v-1h1v1Zm0,0H117v1h21Z"/><path class="cls-2" d="M140,198v4h-1v-4Zm-2-1v1h1v-1Zm-52,0h52v-1H86Zm-1,1h1v-1H85Zm0,4v-4H84v4Zm1,1v-1H85v1Zm21,1v-1H86v1Zm1,1v-1h-1v1Zm1,21V205h-1v21Zm1,1v-1h-1v1Zm4,0h-4v1h4Zm1-1h-1v1h1Zm1-21h-1v21h1Zm1-1h-1v1h1Zm21-1v-1h1v1Zm0,0H117v1h21Z"/><path class="cls-2" d="M22,172H42v1H22Zm-1,2h1v-1H21Zm0,4v-4H20v4Zm1,1v-1H21v1Zm13,1v-1H22v1Zm1,1v-1H35v1Zm1,21V181H36v21Zm1,1v-1H37v1Zm4,0H38v1h4Zm1-1H42v1h1Zm0-28H42v-1h1Zm0,0v28h1V174Z"/><path class="cls-2" d="M202,172H182v1h20Zm1,2h-1v-1h1Zm0,4v-4h1v4Zm-1,1v-1h1v1Zm-13,1v-1h13v1Zm-1,1v-1h1v1Zm-1,21V181h1v21Zm-1,1v-1h1v1Zm-4,0h4v1h-4Zm-1-1h1v1h-1Zm0-28h1v-1h-1Zm0,0v28h-1V174Z"/><path class="cls-2" d="M62,196h4v1H62Zm-1,2h1v-1H61Zm-1,21h1V198H60Zm-1,1h1v-1H59Zm-37,1H59v-1H22Zm-1,1h1v-1H21Zm0,4v-4H20v4Zm1,1v-1H21v1Zm68,0H22v1H90Zm1-1H90v1h1Zm0-4v4h1v-4Zm-1-1v1h1v-1Zm-21-1v1H90v-1Zm-1-1v1h1v-1Zm-1-21H66v-1h1Zm0,0v21h1V198Z"/><path class="cls-2" d="M162,196h-4v1h4Zm1,2h-1v-1h1Zm1,21h-1V198h1Zm1,1h-1v-1h1Zm37,1H165v-1h37Zm1,1h-1v-1h1Zm0,4v-4h1v4Zm-1,1v-1h1v1Zm-68,0h68v1H134Zm-1-1h1v1h-1Zm0-4v4h-1v-4Zm1-1v1h-1v-1Zm21-1v1H134v-1Zm1-1v1h-1v-1Zm1-21h1v-1h-1Zm0,0v21h-1V198Z"/><path class="cls-2" d="M0,124H42v1H0Zm0,3v1H40v24H4v1H2v1H1v2H0v88H1v2H2v1H4v1H220v-1h2v-1h1v-2h1V156h-1v-2h-1v-1h-2v-1H184V128h40v-1H184v1h-1v24h1v1h36v1h2v2h1v88h-1v2h-2v1H4v-1H2v-2H1V156H2v-2H4v-1H40v-1h1V128H40v-1Zm224-2v-1H182v1h-1v1h-1v28h1v1h1v1h37v1h1v38h-1v1H206v1h-1v1h-1v4h1v1h1v1h13v1h1v38h-1v1H5v-1H4V205H5v-1H18v-1h1v-1h1v-4H19v-1H18v-1H5v-1H4V157H5v-1H42v-1h1v-1h1V126H43v-1H42v1h1v28H42v1H5v1H4v1H3v38H4v1H5v1H18v1h1v4H18v1H5v1H4v1H3v38H4v1H5v1H219v-1h1v-1h1V205h-1v-1h-1v-1H206v-1h-1v-4h1v-1h13v-1h1v-1h1V157h-1v-1h-1v-1H182v-1h-1V126h1v-1Z"/><path class="cls-2" d="M0,108H42v-1h1v-1h1V78H43V77H42V76H5V75H4V5H5V4H107V5h1V34h1v1h1v1h4V35h1V34h1V5h1V4H219V5h1V75h-1v1H182v1h-1v1h-1v28h1v1h1v1h42v-1H182v-1h-1V78h1V77h37V76h1V75h1V5h-1V4h-1V3H117V4h-1V5h-1V34h-1v1h-4V34h-1V5h-1V4h-1V3H5V4H4V5H3V75H4v1H5v1H42v1h1v28H42v1H0Zm0-3H40v-1h1V80H40V79H4V78H2V76H1V4H2V2H4V1H220V2h2V4h1V76h-1v2h-2v1H184v1h-1v24h1v1h40v-1H184V80h36V79h2V78h1V76h1V4h-1V2h-1V1h-2V0H4V1H2V2H1V4H0V76H1v2H2v1H4v1H40v24H0Z"/></g></g></svg>

<svg width="224" height="248" viewBox="0 0 224 248" fill="none" xmlns="http://www.w3.org/2000/svg">
<rect width="224" height="248" fill="white"/>
<rect width="224" height="248" fill="black"/>
<path fill-rule="evenodd" clip-rule="evenodd" d="M104 100H84V132H140V100H120V104H136V128H88V104H104V100ZM103 101H85V131H139V101H121V103H137V129H87V103H103V101Z" fill="#2121FF"/>
<path d="M104 103V101H120V103H104Z" fill="#FCB5FF"/>
<path fill-rule="evenodd" clip-rule="evenodd" d="M22 52H42V53H22V52ZM21 54H22V53H21V54ZM21 58V54H20V58H21ZM22 59V58H21V59H22ZM42 59H22V60H42V59ZM43 58H42V59H43V58ZM43 54H42V53H43V54ZM43 54V58H44V54H43Z" fill="#2121FF"/>
<path fill-rule="evenodd" clip-rule="evenodd" d="M182 52H202V53H182V52ZM181 54H182V53H181V54ZM181 58V54H180V58H181ZM182 59V58H181V59H182ZM202 59H182V60H202V59ZM203 58H202V59H203V58ZM203 54H202V53H203V54ZM203 54V58H204V54H203Z" fill="#2121FF"/>
<path fill-rule="evenodd" clip-rule="evenodd" d="M62 124H66V125H62V124ZM61 126H62V125H61V126ZM61 154V126H60V154H61ZM62 155V154H61V155H62ZM66 155H62V156H66V155ZM67 154H66V155H67V154ZM67 126H66V125H67V126ZM67 126V154H68V126H67Z" fill="#2121FF"/>
<path fill-rule="evenodd" clip-rule="evenodd" d="M158 124H162V125H158V124ZM157 126H158V125H157V126ZM157 154V126H156V154H157ZM158 155V154H157V155H158ZM162 155H158V156H162V155ZM163 154H162V155H163V154ZM163 126H162V125H163V126ZM163 126V154H164V126H163Z" fill="#2121FF"/>
<path fill-rule="evenodd" clip-rule="evenodd" d="M164 174L164 178L163 178L163 174L164 174ZM162 173L162 174L163 174L163 173L162 173ZM134 173L162 173L162 172L134 172L134 173ZM133 174L134 174L134 173L133 173L133 174ZM133 178L133 174L132 174L132 178L133 178ZM134 179L134 178L133 178L133 179L134 179ZM162 179L162 178L163 178L163 179L162 179ZM162 179L134 179L134 180L162 180L162 179Z" fill="#2121FF"/>
<path fill-rule="evenodd" clip-rule="evenodd" d="M92 174L92 178L91 178L91 174L92 174ZM90 173L90 174L91 174L91 173L90 173ZM62 173L90 173L90 172L62 172L62 173ZM61 174L62 174L62 173L61 173L61 174ZM61 178L61 174L60 174L60 178L61 178ZM62 179L62 178L61 178L61 179L62 179ZM90 179L90 178L91 178L91 179L90 179ZM90 179L62 179L62 180L90 180L90 179Z" fill="#2121FF"/>
<path fill-rule="evenodd" clip-rule="evenodd" d="M22 20H42V21H22V20ZM21 22H22V21H21V22ZM21 34V22H20V34H21ZM22 35V34H21V35H22ZM42 35H22V36H42V35ZM43 34H42V35H43V34ZM43 22H42V21H43V22ZM43 22V34H44V22H43Z" fill="#2121FF"/>
<path fill-rule="evenodd" clip-rule="evenodd" d="M182 20H202V21H182V20ZM181 22H182V21H181V22ZM181 34V22H180V34H181ZM182 35V34H181V35H182ZM202 35H182V36H202V35ZM203 34H202V35H203V34ZM203 22H202V21H203V22ZM203 22V34H204V22H203Z" fill="#2121FF"/>
<path fill-rule="evenodd" clip-rule="evenodd" d="M62 20H90V21H62V20ZM61 22H62V21H61V22ZM61 34V22H60V34H61ZM62 35V34H61V35H62ZM90 35H62V36H90V35ZM91 34H90V35H91V34ZM91 22H90V21H91V22ZM91 22V34H92V22H91Z" fill="#2121FF"/>
<path fill-rule="evenodd" clip-rule="evenodd" d="M134 20H162V21H134V20ZM133 22H134V21H133V22ZM133 34V22H132V34H133ZM134 35V34H133V35H134ZM162 35H134V36H162V35ZM163 34H162V35H163V34ZM163 22H162V21H163V22ZM163 22V34H164V22H163Z" fill="#2121FF"/>
<path fill-rule="evenodd" clip-rule="evenodd" d="M62 52H66V53H62V52ZM61 54H62V53H61V54ZM61 106V54H60V106H61ZM62 107V106H61V107H62ZM66 107H62V108H66V107ZM67 106H66V107H67V106ZM68 85H67V106H68V85ZM69 84H68V85H69V84ZM90 83H69V84H90V83ZM91 82H90V83H91V82ZM91 78V82H92V78H91ZM90 77V78H91V77H90ZM69 76V77H90V76H69ZM68 75V76H69V75H68ZM67 54H66V53H67V54ZM67 54V75H68V54H67Z" fill="#2121FF"/>
<path fill-rule="evenodd" clip-rule="evenodd" d="M140 54L140 58L139 58L139 54L140 54ZM138 53L138 54L139 54L139 53L138 53ZM86 53L138 53L138 52L86 52L86 53ZM85 54L86 54L86 53L85 53L85 54ZM85 58L85 54L84 54L84 58L85 58ZM86 59L86 58L85 58L85 59L86 59ZM107 60L107 59L86 59L86 60L107 60ZM108 61L108 60L107 60L107 61L108 61ZM109 82L109 61L108 61L108 82L109 82ZM110 83L110 82L109 82L109 83L110 83ZM114 83L110 83L110 84L114 84L114 83ZM115 82L114 82L114 83L115 83L115 82ZM116 61L115 61L115 82L116 82L116 61ZM117 60L116 60L116 61L117 61L117 60ZM138 59L138 58L139 58L139 59L138 59ZM138 59L117 59L117 60L138 60L138 59Z" fill="#2121FF"/>
<path fill-rule="evenodd" clip-rule="evenodd" d="M162 108L158 108L158 107L162 107L162 108ZM163 106L162 106L162 107L163 107L163 106ZM163 54L163 106L164 106L164 54L163 54ZM162 53L162 54L163 54L163 53L162 53ZM158 53L162 53L162 52L158 52L158 53ZM157 54L158 54L158 53L157 53L157 54ZM156 75L157 75L157 54L156 54L156 75ZM155 76L156 76L156 75L155 75L155 76ZM134 77L155 77L155 76L134 76L134 77ZM133 78L134 78L134 77L133 77L133 78ZM133 82L133 78L132 78L132 82L133 82ZM134 83L134 82L133 82L133 83L134 83ZM155 84L155 83L134 83L134 84L155 84ZM156 85L156 84L155 84L155 85L156 85ZM157 106L158 106L158 107L157 107L157 106ZM157 106L157 85L156 85L156 106L157 106Z" fill="#2121FF"/>
<path fill-rule="evenodd" clip-rule="evenodd" d="M140 150L140 154L139 154L139 150L140 150ZM138 149L138 150L139 150L139 149L138 149ZM86 149L138 149L138 148L86 148L86 149ZM85 150L86 150L86 149L85 149L85 150ZM85 154L85 150L84 150L84 154L85 154ZM86 155L86 154L85 154L85 155L86 155ZM107 156L107 155L86 155L86 156L107 156ZM108 157L108 156L107 156L107 157L108 157ZM109 178L109 157L108 157L108 178L109 178ZM110 179L110 178L109 178L109 179L110 179ZM114 179L110 179L110 180L114 180L114 179ZM115 178L114 178L114 179L115 179L115 178ZM116 157L115 157L115 178L116 178L116 157ZM117 156L116 156L116 157L117 157L117 156ZM138 155L138 154L139 154L139 155L138 155ZM138 155L117 155L117 156L138 156L138 155Z" fill="#2121FF"/>
<path fill-rule="evenodd" clip-rule="evenodd" d="M140 198L140 202L139 202L139 198L140 198ZM138 197L138 198L139 198L139 197L138 197ZM86 197L138 197L138 196L86 196L86 197ZM85 198L86 198L86 197L85 197L85 198ZM85 202L85 198L84 198L84 202L85 202ZM86 203L86 202L85 202L85 203L86 203ZM107 204L107 203L86 203L86 204L107 204ZM108 205L108 204L107 204L107 205L108 205ZM109 226L109 205L108 205L108 226L109 226ZM110 227L110 226L109 226L109 227L110 227ZM114 227L110 227L110 228L114 228L114 227ZM115 226L114 226L114 227L115 227L115 226ZM116 205L115 205L115 226L116 226L116 205ZM117 204L116 204L116 205L117 205L117 204ZM138 203L138 202L139 202L139 203L138 203ZM138 203L117 203L117 204L138 204L138 203Z" fill="#2121FF"/>
<path fill-rule="evenodd" clip-rule="evenodd" d="M22 172H42V173H22V172ZM21 174H22V173H21V174ZM21 178V174H20V178H21ZM22 179V178H21V179H22ZM35 180V179H22V180H35ZM36 181V180H35V181H36ZM37 202V181H36V202H37ZM38 203V202H37V203H38ZM42 203H38V204H42V203ZM43 202H42V203H43V202ZM43 174H42V173H43V174ZM43 174V202H44V174H43Z" fill="#2121FF"/>
<path fill-rule="evenodd" clip-rule="evenodd" d="M202 172H182V173H202V172ZM203 174H202V173H203V174ZM203 178V174H204V178H203ZM202 179V178H203V179H202ZM189 180V179H202V180H189ZM188 181V180H189V181H188ZM187 202V181H188V202H187ZM186 203V202H187V203H186ZM182 203H186V204H182V203ZM181 202H182V203H181V202ZM181 174H182V173H181V174ZM181 174V202H180V174H181Z" fill="#2121FF"/>
<path fill-rule="evenodd" clip-rule="evenodd" d="M62 196H66V197H62V196ZM61 198H62V197H61V198ZM60 219H61V198H60V219ZM59 220H60V219H59V220ZM22 221H59V220H22V221ZM21 222H22V221H21V222ZM21 226V222H20V226H21ZM22 227V226H21V227H22ZM90 227H22V228H90V227ZM91 226H90V227H91V226ZM91 222V226H92V222H91ZM90 221V222H91V221H90ZM69 220V221H90V220H69ZM68 219V220H69V219H68ZM67 198H66V197H67V198ZM67 198V219H68V198H67Z" fill="#2121FF"/>
<path fill-rule="evenodd" clip-rule="evenodd" d="M162 196H158V197H162V196ZM163 198H162V197H163V198ZM164 219H163V198H164V219ZM165 220H164V219H165V220ZM202 221H165V220H202V221ZM203 222H202V221H203V222ZM203 226V222H204V226H203ZM202 227V226H203V227H202ZM134 227H202V228H134V227ZM133 226H134V227H133V226ZM133 222V226H132V222H133ZM134 221V222H133V221H134ZM155 220V221H134V220H155ZM156 219V220H155V219H156ZM157 198H158V197H157V198ZM157 198V219H156V198H157Z" fill="#2121FF"/>
<path fill-rule="evenodd" clip-rule="evenodd" d="M0 124H42V125H0V124ZM0 127V128H40V152H4V153H2V154H1V156H0V244H1V246H2V247H4V248H220V247H222V246H223V244H224V156H223V154H222V153H220V152H184V128H224V127H184V128H183V152H184V153H220V154H222V156H223V244H222V246H220V247H4V246H2V244H1V156H2V154H4V153H40V152H41V128H40V127H0ZM224 125V124H182V125H181V126H180V154H181V155H182V156H219V157H220V195H219V196H206V197H205V198H204V202H205V203H206V204H219V205H220V243H219V244H5V243H4V205H5V204H18V203H19V202H20V198H19V197H18V196H5V195H4V157H5V156H42V155H43V154H44V126H43V125H42V126H43V154H42V155H5V156H4V157H3V195H4V196H5V197H18V198H19V202H18V203H5V204H4V205H3V243H4V244H5V245H219V244H220V243H221V205H220V204H219V203H206V202H205V198H206V197H219V196H220V195H221V157H220V156H219V155H182V154H181V126H182V125H224Z" fill="#2121FF"/>
<path fill-rule="evenodd" clip-rule="evenodd" d="M0 108H42V107H43V106H44V78H43V77H42V76H5V75H4V5H5V4H107V5H108V34H109V35H110V36H114V35H115V34H116V5H117V4H219V5H220V75H219V76H182V77H181V78H180V106H181V107H182V108H224V107H182V106H181V78H182V77H219V76H220V75H221V5H220V4H219V3H117V4H116V5H115V34H114V35H110V34H109V5H108V4H107V3H5V4H4V5H3V75H4V76H5V77H42V78H43V106H42V107H0V108ZM0 105H40V104H41V80H40V79H4V78H2V76H1V4H2V2H4V1H220V2H222V4H223V76H222V78H220V79H184V80H183V104H184V105H224V104H184V80H220V79H222V78H223V76H224V4H223V2H222V1H220V0H4V1H2V2H1V4H0V76H1V78H2V79H4V80H40V104H0V105Z" fill="#2121FF"/>
</svg>
